configs/network-logos/lycan-logo-dark.svg

<svg width="124" height="28" viewBox="0 0 124 28" fill="none" xmlns="http://www.w3.org/2000/svg">
<g clip-path="url(#clip0_240_4043)">
<mask id="mask0_240_4043" style="mask-type:luminance" maskUnits="userSpaceOnUse" x="0" y="0" width="30" height="28">
<path d="M29.739 0H0V28H29.739V0Z" fill="white"/>
</mask>
<g mask="url(#mask0_240_4043)">
<path d="M14.2404 17.1869V27.7671C14.2404 27.7865 14.2404 27.8059 14.2404 27.8253C14.2394 28.0105 14.2151 28.0285 14.0368 27.9708C13.6415 27.843 13.2466 27.7148 12.8522 27.586C12.3661 27.4274 11.8809 27.2665 11.3939 27.1113C11.3519 27.1025 11.3132 27.0818 11.2825 27.0517C11.2518 27.0217 11.2303 26.9835 11.2205 26.9416C11.0464 26.318 10.8676 25.696 10.6881 25.0737C10.4998 24.4186 10.3094 23.7642 10.1213 23.1089C9.96392 22.5609 9.81074 22.0117 9.65234 21.4638C9.41023 20.6228 9.16473 19.7829 8.92318 18.9419C8.74699 18.3288 8.57645 17.7142 8.40083 17.101C8.16083 16.2646 7.91604 15.4295 7.67604 14.593C7.49731 13.9707 7.32508 13.346 7.14593 12.7236C6.89068 11.8361 6.63092 10.95 6.37469 10.0628C6.07964 9.04112 5.7859 8.01904 5.49348 6.99658C5.47829 6.93561 5.47154 6.87284 5.47343 6.81003C5.4724 4.61067 5.4724 2.41126 5.47343 0.211802C5.47809 0.160769 5.48755 0.11029 5.50167 0.0610352C5.55477 0.073711 5.60598 0.093301 5.654 0.119305C7.42536 1.40596 9.19583 2.69384 10.9654 3.98294C11.9895 4.72782 13.0146 5.47142 14.0406 6.21375C14.107 6.2544 14.1612 6.31241 14.1972 6.38156C14.2332 6.45071 14.2497 6.52838 14.2449 6.60622C14.2387 10.1326 14.2372 13.6594 14.2404 17.1866" fill="white"/>
<path d="M24.25 0.000141432C24.2545 0.0930623 24.2598 0.149918 24.2598 0.206774C24.2598 2.40152 24.2661 4.59626 24.2521 6.79086C24.2281 7.05978 24.1694 7.32444 24.0774 7.57821C23.9088 8.18283 23.7294 8.78434 23.555 9.38727C23.3769 10.0039 23.1993 10.6207 23.0224 11.2378C22.8177 11.9528 22.6158 12.6686 22.4102 13.3834C22.1969 14.1255 21.979 14.8662 21.7663 15.6086C21.5244 16.4536 21.2876 17.3002 21.0455 18.1453C20.7632 19.1292 20.4766 20.1112 20.1942 21.0957C19.8959 22.1353 19.599 23.1754 19.3036 24.2158C19.0472 25.1118 18.788 26.0071 18.5336 26.9031C18.5217 26.9519 18.4967 26.9966 18.4612 27.0321C18.4257 27.0677 18.3812 27.0928 18.3324 27.1047C17.4594 27.386 16.5868 27.6689 15.7147 27.9533C15.5355 28.0117 15.5103 27.997 15.5065 27.813C15.5052 27.7549 15.5058 27.6968 15.5058 27.6386C15.5058 20.633 15.5043 13.6274 15.5013 6.62185C15.4949 6.5349 15.5123 6.44786 15.5518 6.37015C15.5912 6.29244 15.6511 6.22703 15.7251 6.181C17.9226 4.59272 20.1169 2.99982 22.308 1.4023C22.9104 0.964613 23.5123 0.52674 24.1139 0.0886779C24.1478 0.0640687 24.1845 0.0427125 24.25 0" fill="white"/>
<path d="M20.582 24.2446L25.1633 8.20625L25.2367 8.16382C25.2514 8.20934 25.2715 8.25293 25.2966 8.29365C26.7554 10.1315 28.2151 11.9684 29.6757 13.8043C29.7074 13.8394 29.7287 13.8827 29.7371 13.9293C29.7455 13.976 29.7407 14.024 29.7232 14.068C29.5634 14.5998 29.4189 15.1363 29.2672 15.6706C29.1091 16.2278 28.9479 16.7844 28.7899 17.3416C28.6924 17.6856 28.5947 18.0294 28.5045 18.3752C28.4715 18.5256 28.3832 18.658 28.2571 18.746C27.2755 19.4509 26.3012 20.1657 25.3238 20.8766C24.1314 21.744 22.9388 22.6109 21.746 23.4772C21.4176 23.7159 21.0892 23.9544 20.7608 24.1929C20.72 24.2224 20.6749 24.2462 20.6319 24.2728L20.5822 24.2458" fill="white"/>
<path d="M9.12639 24.2948C9.06611 24.2569 9.01345 24.2281 8.96503 24.193C7.441 23.085 5.91726 21.9767 4.3938 20.8679C3.40134 20.146 2.40963 19.423 1.41868 18.6989C1.34821 18.6433 1.29654 18.5673 1.27073 18.4813C1.01168 17.5801 0.761091 16.6763 0.505847 15.7743C0.344155 15.2024 0.179828 14.6314 0.0128654 14.0611C-0.00107062 14.0205 -0.00374322 13.9768 0.00513254 13.9348C0.0140083 13.8928 0.0340997 13.854 0.0632647 13.8225C1.24414 12.3395 2.42352 10.8554 3.60138 9.37009C3.86001 9.04441 4.11841 8.7186 4.37657 8.39265C4.42387 8.33325 4.47412 8.27611 4.52269 8.21826C4.63563 8.31132 9.12964 24.1011 9.12639 24.295" fill="white"/>
</g>
<path d="M47.4755 27.6571L49.1122 24.018H42.4064V0.262757H38.6934V27.6571H47.4755ZM63.1238 27.6571V16.3795L67.2754 0.262757H63.4831L61.1678 9.58086L58.8923 0.262757H55.1001C56.4977 5.42177 57.8944 11.3406 59.2916 16.4991L59.3315 27.6569L63.1238 27.6571ZM84.8796 17.0191L82.8044 18.3388L81.0878 19.4186V23.5777C81.0878 24.1775 80.7285 24.5775 80.0898 24.5775C79.5709 24.5775 79.0919 24.337 79.0519 23.7376V4.38196C79.0519 3.86206 79.491 3.54214 80.0898 3.54214C80.5689 3.54214 81.0479 3.78257 81.0878 4.38196V10.9799C81.7265 10.62 83.004 9.9401 84.8802 8.86041V3.94211C84.8802 2.02245 83.0839 0.142822 81.048 0.142822H79.2511C77.1759 0.142822 75.2593 1.74256 75.2593 3.94211V24.018C75.2593 26.1375 77.0955 27.8571 79.2511 27.8571H81.0076C83.0829 27.8571 84.8798 26.2574 84.8798 24.018L84.8796 17.0191ZM105.478 27.6569C104.001 18.4987 102.564 9.50053 101.127 0.262474H97.6138L93.2627 27.6571H97.0549C97.3343 25.4176 97.6138 23.618 97.9332 21.4983H100.807L101.725 27.6571L105.478 27.6569ZM99.3304 10.4207L100.328 17.9392H98.3722L99.3304 10.4207ZM124 27.6571V0.262757H120.208V13.86L117.493 0.262757H113.861V27.6571H117.574V14.22L120.288 27.6573L124 27.6571Z" fill="white"/>
</g>
<defs>
<clipPath id="clip0_240_4043">
<rect width="124" height="28" fill="white"/>
</clipPath>
</defs>
</svg>

<svg xmlns="http://www.w3.org/2000/svg" fill="none" viewBox="0 0 124 28">
  <g clip-path="url(#lycan-logo-dark_svg__a)">
    <mask id="lycan-logo-dark_svg__b" width="30" height="28" x="0" y="0" maskUnits="userSpaceOnUse" style="mask-type:luminance">
      <path fill="#fff" d="M29.739 0H0v28h29.739V0Z"/>
    </mask>
    <g fill="#fff" mask="url(#lycan-logo-dark_svg__b)">
      <path d="M14.24 17.187v10.638c0 .186-.025.204-.203.146l-1.185-.385c-.486-.159-.971-.32-1.458-.475a.225.225 0 0 1-.174-.17c-.174-.623-.352-1.245-.532-1.867l-.567-1.965c-.157-.548-.31-1.097-.469-1.645-.242-.841-.487-1.681-.729-2.522-.176-.613-.347-1.228-.522-1.841-.24-.836-.485-1.671-.725-2.508-.179-.622-.35-1.247-.53-1.87-.255-.887-.515-1.773-.771-2.66-.295-1.022-.59-2.044-.882-3.066a.686.686 0 0 1-.02-.187V.212A.817.817 0 0 1 5.502.06a.624.624 0 0 1 .152.058c1.771 1.287 3.542 2.575 5.311 3.864 1.024.745 2.05 1.488 3.076 2.23a.43.43 0 0 1 .204.393c-.006 3.527-.008 7.053-.005 10.58M24.25 0c.005.093.01.15.01.207 0 2.195.006 4.39-.008 6.584a3.125 3.125 0 0 1-.175.787c-.168.605-.348 1.206-.522 1.81l-.533 1.85c-.204.715-.406 1.43-.612 2.145-.213.743-.431 1.483-.644 2.226-.242.845-.478 1.691-.72 2.536-.283.984-.57 1.966-.852 2.95-.298 1.04-.595 2.08-.89 3.12-.257.897-.516 1.792-.77 2.688a.274.274 0 0 1-.202.202c-.873.281-1.745.564-2.617.848-.18.059-.205.044-.208-.14-.002-.058-.001-.116-.001-.174 0-7.006-.002-14.012-.005-21.017a.478.478 0 0 1 .224-.441C17.923 4.593 20.117 3 22.308 1.402L24.114.09c.034-.025.07-.046.136-.089m-3.668 24.244 4.581-16.039.074-.042a.588.588 0 0 0 .06.13c1.458 1.838 2.918 3.674 4.379 5.51a.254.254 0 0 1 .047.264c-.16.532-.304 1.068-.456 1.603-.158.557-.32 1.113-.477 1.67-.098.345-.195.688-.285 1.034a.612.612 0 0 1-.248.371c-.982.705-1.956 1.42-2.933 2.13a4031.85 4031.85 0 0 1-3.578 2.601l-.985.716c-.041.03-.086.053-.13.08l-.049-.027m-11.456.049c-.06-.038-.113-.067-.161-.102a10843.324 10843.324 0 0 1-7.546-5.494.437.437 0 0 1-.148-.218c-.26-.9-.51-1.805-.765-2.707a192.35 192.35 0 0 0-.493-1.713.238.238 0 0 1 .05-.239 2838.65 2838.65 0 0 0 4.314-5.43c.047-.059.097-.116.146-.174.113.093 4.607 15.883 4.603 16.077"/>
    </g>
    <path fill="#fff" d="m47.475 27.657 1.637-3.639h-6.706V.263h-3.713v27.394h8.782Zm15.649 0V16.38L67.275.262h-3.792L61.168 9.58 58.892.263H55.1c1.398 5.159 2.794 11.078 4.192 16.236l.04 11.158h3.792ZM84.88 17.02l-2.076 1.32-1.716 1.08v4.159c0 .6-.36 1-.998 1-.52 0-.998-.241-1.038-.84V4.382c0-.52.439-.84 1.038-.84.479 0 .958.24.998.84v6.598c.639-.36 1.916-1.04 3.792-2.12V3.942c0-1.92-1.796-3.8-3.832-3.8h-1.797c-2.075 0-3.992 1.6-3.992 3.8v20.076c0 2.12 1.837 3.84 3.992 3.84h1.757c2.075 0 3.872-1.6 3.872-3.84v-6.999Zm20.598 10.638A4928.996 4928.996 0 0 1 101.127.262h-3.513l-4.351 27.395h3.792c.28-2.24.559-4.039.878-6.159h2.874l.918 6.16 3.753-.001ZM99.33 10.42l.998 7.518h-1.956l.958-7.518ZM124 27.657V.263h-3.792V13.86L117.493.263h-3.632v27.394h3.713V14.22l2.714 13.437H124Z"/>
  </g>
  <defs>
    <clipPath id="lycan-logo-dark_svg__a">
      <path fill="#fff" d="M0 0h124v28H0z"/>
    </clipPath>
  </defs>
</svg>
